Origami/64x64/apps/synapse.svg

<svg width="64" height="64" version="1.1" viewBox="0 0 64 64" xmlns="http://www.w3.org/2000/svg">
 <rect transform="matrix(0,-1,-1,0,0,0)" x="-61" y="-61" width="57" height="57" rx="28.5" ry="28.5" style="opacity:.2"/>
 <rect transform="matrix(0,-1,-1,0,0,0)" x="-60" y="-61" width="57" height="57" rx="28.5" ry="28.5" style="fill:#20b293"/>
 <path d="m31.00025 14v4.080078a14.5 14.5 0 0 0 -12.78125 11.919922h3.064453a11.5 11.5 0 0 1 11.216797 -9 11.5 11.5 0 0 1 11.208984 9h3.058594a14.5 14.5 0 0 0 -12.767578 -11.916016v-4.083984h-3zm1.5 10a8.5 8.5 0 0 0 -8.5 8.5 8.5 8.5 0 0 0 0.140625 1.5h0.859375 2.210938 10.574218a5.5 5.5 0 0 1 -5.285156 4 5.5 5.5 0 0 1 -4.236328 -2h-3.5a8.5 8.5 0 0 0 7.736328 5 8.5 8.5 0 0 0 8.5 -8.5 8.5 8.5 0 0 0 -0.140625 -1.5h-0.859375-2.210938-10.574218a5.5 5.5 0 0 1 5.285156 -4 5.5 5.5 0 0 1 4.236328 2h3.5a8.5 8.5 0 0 0 -7.736328 -5zm-14.267578 11a14.5 14.5 0 0 0 12.767578 11.916016v4.083984h3v-4.080078a14.5 14.5 0 0 0 12.78125 -11.919922h-3.064453a11.5 11.5 0 0 1 -11.216797 9 11.5 11.5 0 0 1 -11.208984 -9h-3.058594z" style="opacity:.2"/>
 <path d="m31.00025 13v4.080078a14.5 14.5 0 0 0 -12.78125 11.919922h3.064453a11.5 11.5 0 0 1 11.216797 -9 11.5 11.5 0 0 1 11.208984 9h3.058594a14.5 14.5 0 0 0 -12.767578 -11.916016v-4.083984h-3zm1.5 10a8.5 8.5 0 0 0 -8.5 8.5 8.5 8.5 0 0 0 0.140625 1.5h0.859375 2.210938 10.574218a5.5 5.5 0 0 1 -5.285156 4 5.5 5.5 0 0 1 -4.236328 -2h-3.5a8.5 8.5 0 0 0 7.736328 5 8.5 8.5 0 0 0 8.5 -8.5 8.5 8.5 0 0 0 -0.140625 -1.5h-0.859375-2.210938-10.574218a5.5 5.5 0 0 1 5.285156 -4 5.5 5.5 0 0 1 4.236328 2h3.5a8.5 8.5 0 0 0 -7.736328 -5zm-14.267578 11a14.5 14.5 0 0 0 12.767578 11.916016v4.083984h3v-4.080078a14.5 14.5 0 0 0 12.78125 -11.919922h-3.064453a11.5 11.5 0 0 1 -11.216797 9 11.5 11.5 0 0 1 -11.208984 -9h-3.058594z" style="fill:#ffffff"/>
 <path d="m32.5 3c-15.789 0-28.5 12.711-28.5 28.5 0 0.167737 0.0088611 0.332969 0.0117188 0.5 0.2661305-15.555482 12.867018-28 28.488281-28s28.222151 12.444518 28.488281 28c0.002858-0.167031 0.011719-0.332263 0.011719-0.5 0-15.789-12.711-28.5-28.5-28.5z" style="fill:#ffffff;opacity:.2"/>
</svg>

<svg xmlns="http://www.w3.org/2000/svg" width="64" height="64" version="1.1" viewBox="0 0 64 64">
 <rect width="57" height="57" x="-61" y="-61" rx="28.5" ry="28.5" transform="matrix(0,-1,-1,0,0,0)" style="opacity:0.2"/>
 <rect style="fill:#20b293" width="57" height="57" x="-60" y="-61" rx="28.5" ry="28.5" transform="matrix(0,-1,-1,0,0,0)"/>
 <path d="m 31.00025,14 0,4.080078 A 14.5,14.5 0 0 0 18.219,30 l 3.064453,0 a 11.5,11.5 0 0 1 11.216797,-9 11.5,11.5 0 0 1 11.208984,9 l 3.058594,0 A 14.5,14.5 0 0 0 34.00025,18.083984 l 0,-4.083984 -3,0 z m 1.5,10 a 8.5,8.5 0 0 0 -8.5,8.5 8.5,8.5 0 0 0 0.140625,1.5 l 0.859375,0 2.210938,0 10.574218,0 a 5.5,5.5 0 0 1 -5.285156,4 5.5,5.5 0 0 1 -4.236328,-2 l -3.5,0 a 8.5,8.5 0 0 0 7.736328,5 8.5,8.5 0 0 0 8.5,-8.5 8.5,8.5 0 0 0 -0.140625,-1.5 l -0.859375,0 -2.210938,0 -10.574218,0 a 5.5,5.5 0 0 1 5.285156,-4 5.5,5.5 0 0 1 4.236328,2 l 3.5,0 A 8.5,8.5 0 0 0 32.50025,24 Z M 18.232672,35 A 14.5,14.5 0 0 0 31.00025,46.916016 l 0,4.083984 3,0 0,-4.080078 A 14.5,14.5 0 0 0 46.7815,35 l -3.064453,0 A 11.5,11.5 0 0 1 32.50025,44 11.5,11.5 0 0 1 21.291266,35 l -3.058594,0 z" style="opacity:0.2"/>
 <path style="fill:#ffffff" d="m 31.00025,13 0,4.080078 A 14.5,14.5 0 0 0 18.219,29 l 3.064453,0 a 11.5,11.5 0 0 1 11.216797,-9 11.5,11.5 0 0 1 11.208984,9 l 3.058594,0 A 14.5,14.5 0 0 0 34.00025,17.083984 l 0,-4.083984 -3,0 z m 1.5,10 a 8.5,8.5 0 0 0 -8.5,8.5 8.5,8.5 0 0 0 0.140625,1.5 l 0.859375,0 2.210938,0 10.574218,0 a 5.5,5.5 0 0 1 -5.285156,4 5.5,5.5 0 0 1 -4.236328,-2 l -3.5,0 a 8.5,8.5 0 0 0 7.736328,5 8.5,8.5 0 0 0 8.5,-8.5 8.5,8.5 0 0 0 -0.140625,-1.5 l -0.859375,0 -2.210938,0 -10.574218,0 a 5.5,5.5 0 0 1 5.285156,-4 5.5,5.5 0 0 1 4.236328,2 l 3.5,0 A 8.5,8.5 0 0 0 32.50025,23 Z M 18.232672,34 A 14.5,14.5 0 0 0 31.00025,45.916016 l 0,4.083984 3,0 0,-4.080078 A 14.5,14.5 0 0 0 46.7815,34 l -3.064453,0 A 11.5,11.5 0 0 1 32.50025,43 11.5,11.5 0 0 1 21.291266,34 l -3.058594,0 z"/>
 <path style="fill:#ffffff;opacity:0.2" d="M 32.5 3 C 16.711 3 4 15.711 4 31.5 C 4 31.667737 4.0088611 31.832969 4.0117188 32 C 4.2778493 16.444518 16.878737 4 32.5 4 C 48.121263 4 60.722151 16.444518 60.988281 32 C 60.991139 31.832969 61 31.667737 61 31.5 C 61 15.711 48.289 3 32.5 3 z"/>
</svg>
